X:2
T:Lark in the Morning, pt.2
R:jig
M:6/8
L:1/8
K:D
d2f fef|fef fef|d2f fef|edB BAB|
d2f fef|fef fef|~g3 fgf|1 edB BAB:|2 edB BdB|]
Add fdd|ede fdB|Add fdd|edB BAF|
Add fdd|ede fed|~g3 fgf|1 edB BAF:|2 edB BdB|]
<abc>
